images_sukapura_svg/cmd/sc_spacepara2.svg

<svg viewBox="0 0 16 16" xmlns="http://www.w3.org/2000/svg" xmlns:xlink="http://www.w3.org/1999/xlink"><linearGradient id="a" gradientUnits="userSpaceOnUse" x1="0" x2="6.998668" xlink:href="#b" y1="8" y2="8"/><linearGradient id="b" gradientTransform="translate(-31.423729 -6.61017)" gradientUnits="userSpaceOnUse" x1="14" x2="13.79661" y1="22" y2="2.135593"><stop offset="0" stop-color="#0040dd"/><stop offset="1" stop-color="#0a84ff"/></linearGradient><linearGradient id="c" gradientTransform="matrix(0 1.000071 -.99880824 0 12.983287 -2.007285)" gradientUnits="userSpaceOnUse" x1="17.506042" x2="2.507107" xlink:href="#b" y1="9.494602" y2="9.494602"/><linearGradient id="d" gradientTransform="matrix(0 -1.000071 -.99880824 0 12.983287 18.007285)" gradientUnits="userSpaceOnUse" x1="2.109186" x2="17.640469" xlink:href="#b" y1="7.71202" y2="7.184057"/><g fill="#69696e"><rect height="1" ry=".380151" width="7" x="7" y="2.000001"/><rect height="1" ry=".440076" width="7" x="7" y="10"/><rect height="1" ry=".5" width="8" x="7" y="14"/><rect height="1" ry=".47603" width="8" x="7" y="6"/></g><g fill="url(#a)" stroke="url(#a)" stroke-linecap="round" stroke-linejoin="round"><path d="m3.5.5-3 3.015625h2.0039062v2.984375h2v-2.984375h1.9960938z" fill="url(#c)" stroke="url(#c)" stroke-width=".999439"/><path d="m2.5039062 9.5v2.984375h-2.0039062l3 3.015625 3-3.015625h-1.9960938v-2.984375z" fill="url(#d)" stroke="url(#d)"/></g><g fill="#e9e9e9" fill-opacity=".992157"><rect height="1" ry=".380151" width="7" x="7" y="3.000001"/><rect height="1" ry=".440076" width="7" x="7" y="11"/><rect height="1" ry=".5" width="8" x="7" y="15"/><rect height="1" ry=".47603" width="8" x="7" y="7"/></g></svg>

<?xml version="1.0" encoding="UTF-8" standalone="no"?>
<svg
   xmlns:dc="http://purl.org/dc/elements/1.1/"
   xmlns:cc="http://creativecommons.org/ns#"
   xmlns:rdf="http://www.w3.org/1999/02/22-rdf-syntax-ns#"
   xmlns:svg="http://www.w3.org/2000/svg"
   xmlns="http://www.w3.org/2000/svg"
   xmlns:xlink="http://www.w3.org/1999/xlink"
   xmlns:sodipodi="http://sodipodi.sourceforge.net/DTD/sodipodi-0.dtd"
   xmlns:inkscape="http://www.inkscape.org/namespaces/inkscape"
   viewBox="0 0 16 16"
   version="1.1"
   id="svg26"
   sodipodi:docname="sc_spacepara2.svg"
   inkscape:version="0.92.3 (unknown)">
  <metadata
     id="metadata32">
    <rdf:RDF>
      <cc:Work
         rdf:about="">
        <dc:format>image/svg+xml</dc:format>
        <dc:type
           rdf:resource="http://purl.org/dc/dcmitype/StillImage" />
      </cc:Work>
    </rdf:RDF>
  </metadata>
  <defs
     id="defs30">
    <linearGradient
       inkscape:collect="always"
       xlink:href="#a"
       id="linearGradient904"
       x1="-2.0358581e-07"
       y1="8"
       x2="6.9986677"
       y2="8"
       gradientUnits="userSpaceOnUse" />
    <linearGradient
       gradientTransform="translate(-31.423729,-6.6101695)"
       id="a"
       gradientUnits="userSpaceOnUse"
       x1="14"
       x2="13.79661"
       y1="22"
       y2="2.1355929">
      <stop
         offset="0"
         stop-color="#0040dd"
         id="stop2" />
      <stop
         offset="1"
         stop-color="#0a84ff"
         id="stop4" />
    </linearGradient>
    <linearGradient
       inkscape:collect="always"
       xlink:href="#a"
       id="linearGradient933"
       gradientUnits="userSpaceOnUse"
       x1="17.506042"
       y1="9.4946022"
       x2="2.507107"
       y2="9.4946022"
       gradientTransform="matrix(0,1.000071,-0.99880824,0,12.983287,-2.007285)" />
    <linearGradient
       inkscape:collect="always"
       xlink:href="#a"
       id="linearGradient928"
       gradientUnits="userSpaceOnUse"
       x1="2.1091855"
       y1="7.7120199"
       x2="17.640469"
       y2="7.1840568"
       gradientTransform="matrix(0,-1.000071,-0.99880824,0,12.983287,18.007285)" />
    <linearGradient
       inkscape:collect="always"
       xlink:href="#a"
       id="linearGradient903"
       gradientUnits="userSpaceOnUse"
       x1="-2.0358581e-07"
       y1="8"
       x2="6.9986677"
       y2="8" />
    <linearGradient
       inkscape:collect="always"
       xlink:href="#a"
       id="linearGradient905"
       gradientUnits="userSpaceOnUse"
       x1="-2.0358581e-07"
       y1="8"
       x2="6.9986677"
       y2="8" />
    <linearGradient
       inkscape:collect="always"
       xlink:href="#a"
       id="linearGradient907"
       gradientUnits="userSpaceOnUse"
       x1="-2.0358581e-07"
       y1="8"
       x2="6.9986677"
       y2="8" />
    <linearGradient
       inkscape:collect="always"
       xlink:href="#a"
       id="linearGradient909"
       gradientUnits="userSpaceOnUse"
       x1="-2.0358581e-07"
       y1="8"
       x2="6.9986677"
       y2="8" />
  </defs>
  <sodipodi:namedview
     pagecolor="#ffffff"
     bordercolor="#666666"
     borderopacity="1"
     objecttolerance="10"
     gridtolerance="10"
     guidetolerance="10"
     inkscape:pageopacity="0"
     inkscape:pageshadow="2"
     inkscape:window-width="1366"
     inkscape:window-height="706"
     id="namedview28"
     showgrid="false"
     inkscape:zoom="14.75"
     inkscape:cx="-13.525424"
     inkscape:cy="7.4576271"
     inkscape:window-x="0"
     inkscape:window-y="0"
     inkscape:window-maximized="1"
     inkscape:current-layer="svg26" />
  <g
     fill="#69696e"
     id="g10">
    <rect
       height="1"
       ry=".380151"
       width="7"
       x="7"
       y="2.000001"
       id="rect2" />
    <rect
       height="1"
       ry=".440076"
       width="7"
       x="7"
       y="10"
       id="rect4" />
    <rect
       height="1"
       ry=".5"
       width="8"
       x="7"
       y="14"
       id="rect6" />
    <rect
       height="1"
       ry=".47603"
       width="8"
       x="7"
       y="6"
       id="rect8" />
  </g>
  <g
     id="g896"
     style="fill:url(#linearGradient904);fill-opacity:1;stroke:url(#linearGradient904);stroke-opacity:1">
    <g
       id="g6"
       transform="translate(-8.996227,1.4e-5)"
       style="fill:url(#linearGradient903);fill-opacity:1;stroke:url(#linearGradient905);stroke-linecap:round;stroke-linejoin:round;stroke-opacity:1">
      <path
         inkscape:connector-curvature="0"
         style="fill:url(#linearGradient933);fill-opacity:1;stroke:url(#linearGradient933);stroke-width:0.99943942;stroke-opacity:1"
         d="m 3.5,0.5 -3,3.015625 H 2.5039062 V 6.5 h 2 V 3.515625 H 6.5 Z"
         transform="translate(8.996227,-1.4e-5)"
         id="path2" />
    </g>
    <g
       id="g12"
       transform="matrix(1,0,0,-1,-8.996227,15.999986)"
       style="fill:url(#linearGradient907);fill-opacity:1;stroke:url(#linearGradient909);stroke-linecap:round;stroke-linejoin:round;stroke-opacity:1">
      <path
         inkscape:connector-curvature="0"
         style="fill:url(#linearGradient928);fill-opacity:1;stroke:url(#linearGradient928);stroke-width:1;stroke-miterlimit:4;stroke-dasharray:none;stroke-opacity:1"
         d="m 2.5039062,9.5 v 2.984375 H 0.5 L 3.5,15.5 6.5,12.484375 H 4.5039062 V 9.5 Z"
         transform="matrix(1,0,0,-1,8.996227,15.999986)"
         id="path8" />
    </g>
  </g>
  <g
     id="g842"
     transform="translate(0,1)"
     style="fill:#e9e9e9;fill-opacity:0.99215686">
    <rect
       id="rect834"
       y="2.000001"
       x="7"
       width="7"
       ry="0.380151"
       height="1"
       style="fill:#e9e9e9;fill-opacity:0.99215686" />
    <rect
       id="rect836"
       y="10"
       x="7"
       width="7"
       ry="0.44007599"
       height="1"
       style="fill:#e9e9e9;fill-opacity:0.99215686" />
    <rect
       id="rect838"
       y="14"
       x="7"
       width="8"
       ry="0.5"
       height="1"
       style="fill:#e9e9e9;fill-opacity:0.99215686" />
    <rect
       id="rect840"
       y="6"
       x="7"
       width="8"
       ry="0.47602999"
       height="1"
       style="fill:#e9e9e9;fill-opacity:0.99215686" />
  </g>
</svg>
